X:1
T:Title
%%score ( 1 2 ) { 3 | 4 } ( 5 6 )
L:1/8
Q:1/4=105
M:3/4
K:F
V:1 treble nm="Grand Piano, Staff 1"
V:2 treble 
V:3 bass nm="Choir Pad, America, 664.6664"
V:4 bass 
V:5 treble nm="Strings 1, Staff-1"
V:6 treble 
V:1
 [CF]2 [DF]2 [DG]2 | [CE]3 [DF] [EG]2 | [FA]2 [FA]2 [GB]2 | [FA]3 [EG] F2 | [DG]2 [CF]2 [CE]2 | %5
w: By~Samuel~Francis~Smith,~1832 * *|||||
 [CF]6 | [Ac]2 [Ac]2 [Ac]2 | [Ac]3 [GB] [FA]2 | [GB]2 [GB]2 [GB]2 | [GB]3 [FA] [EG]2 | %10
w: |||||
 [FA]2 BA [FG]F | [FA]3 [FB] [Fc]2 | [Fd][GB] [FA]2 [EG]2 | F6- | F2 z2 z2 |] %15
w: |||||
V:2
 x6 | x6 | x6 | x6 | x6 | x6 | x6 | x6 | x6 | x6 | z2 F2 z2 | x6 | x6 | x6 | x6 |] %15
V:3
 A,2 A,2 B,2 | G,3 B, B,2 | C2 D2 D2 | C3 B,[K:bass] A,2 | B,2 A,2 G,2 | A,6 | C2 C2 C2 | C3 C C2 | %8
 C2 C2 C2 | C3 C C2 | C2 DC B,A, | C3 C C2 | B,D C2 B,2 | A,6- | A,2 z2 z2 |] %15
V:4
 F,2 D,2 B,,2 | C,3 C, C,2 | F,2 D,2 B,,2 | C,3 C, D,2 | B,,2 C,2 C,2 | F,6 | F,2 A,2 z2 | %7
 F,3 F, F,2 | C,2 E,2 G,2 | C,3 C, C,2 | F,2 F,2 F,2 | F,3 G, A,2 | z2 z2 C,2 | F,6- | F,2 z2 z2 |] %15
V:5
 [CF]2 [DF]2 [DG]2 | [CE]3 [DF] [EG]2 | [FA]2 [FA]2 [GB]2 | [FA]3 [EG] F2 | [DG]2 [CF]2 [CE]2 | %5
 [CF]6 | [Ac]2 [Ac]2 [Ac]2 | [Ac]3 [GB] [FA]2 | [GB]2 [GB]2 [GB]2 | [GB]3 [FA] [EG]2 | %10
 [FA]2 BA [FG]F | [FA]3 [FB] [Fc]2 | [Fd][GB] [FA]2 [EG]2 | F6- | F2 z2 z2 |] %15
V:6
 x6 | x6 | x6 | x6 | x6 | x6 | x6 | x6 | x6 | x6 | z2 F2 z2 | x6 | x6 | x6 | x6 |] %15

